Simply-Black-Circles/scalable/places/folder-recent.svg

<svg xmlns="http://www.w3.org/2000/svg" width="48" height="48" viewBox="0 0 12.7 12.7"><g fill="#1a1a1a"><path d="M6.344.07A6.29 6.29 0 0 0 .055 6.36a6.29 6.29 0 0 0 6.29 6.288 6.29 6.29 0 0 0 6.288-6.289A6.29 6.29 0 0 0 6.345.07zm-.018.936a5.407 5.407 0 0 1 5.407 5.407 5.407 5.407 0 0 1-5.407 5.407A5.407 5.407 0 0 1 .92 6.413a5.407 5.407 0 0 1 5.407-5.407z"/><g color="#000" solid-color="#000000" style="isolation:auto;mix-blend-mode:normal"><path d="M6.442 2.402c-2.145 0-3.91 1.412-4.103 3.473H1.3l1.537 1.93 1.536-1.93H3.369c.19-1.502 1.495-2.466 3.073-2.466 1.707 0 3.094 1.364 3.094 3.045 0 1.68-1.387 3.044-3.094 3.044A3.11 3.11 0 0 1 4.116 8.46l-.752.686a4.136 4.136 0 0 0 3.078 1.359c2.273 0 4.118-1.815 4.118-4.052 0-2.236-1.845-4.051-4.118-4.051z" solid-color="#000000" style="isolation:auto;mix-blend-mode:normal"/><path d="M6.701 3.946h-.386l-.385 2.7L7.859 8.19v-.386L6.701 6.26z" solid-color="#000000" style="isolation:auto;mix-blend-mode:normal"/></g></g></svg>

<?xml version="1.0" encoding="UTF-8" standalone="no"?>
<svg
   xmlns:dc="http://purl.org/dc/elements/1.1/"
   xmlns:cc="http://creativecommons.org/ns#"
   xmlns:rdf="http://www.w3.org/1999/02/22-rdf-syntax-ns#"
   xmlns:svg="http://www.w3.org/2000/svg"
   xmlns="http://www.w3.org/2000/svg"
   xmlns:sodipodi="http://sodipodi.sourceforge.net/DTD/sodipodi-0.dtd"
   xmlns:inkscape="http://www.inkscape.org/namespaces/inkscape"
   width="48"
   height="48"
   viewBox="0 0 12.7 12.7"
   version="1.1"
   id="svg12"
   sodipodi:docname="folder-recent.svg"
   inkscape:version="0.92.4 (5da689c313, 2019-01-14)">
  <metadata
     id="metadata18">
    <rdf:RDF>
      <cc:Work
         rdf:about="">
        <dc:format>image/svg+xml</dc:format>
        <dc:type
           rdf:resource="http://purl.org/dc/dcmitype/StillImage" />
        <dc:title></dc:title>
      </cc:Work>
    </rdf:RDF>
  </metadata>
  <defs
     id="defs16" />
  <sodipodi:namedview
     pagecolor="#ffffff"
     bordercolor="#666666"
     borderopacity="1"
     objecttolerance="10"
     gridtolerance="10"
     guidetolerance="10"
     inkscape:pageopacity="0"
     inkscape:pageshadow="2"
     inkscape:window-width="1085"
     inkscape:window-height="480"
     id="namedview14"
     showgrid="false"
     inkscape:zoom="4.9166667"
     inkscape:cx="2.1355932"
     inkscape:cy="24"
     inkscape:window-x="0"
     inkscape:window-y="25"
     inkscape:window-maximized="0"
     inkscape:current-layer="svg12" />
  <g
     id="g10"
     style="fill:#1a1a1a">
    <path
       d="M 6.344,0.07 A 6.29,6.29 0 0 0 0.055,6.36 6.29,6.29 0 0 0 6.345,12.648 6.29,6.29 0 0 0 12.633,6.359 6.29,6.29 0 0 0 6.345,0.07 Z M 6.326,1.006 A 5.407,5.407 0 0 1 11.733,6.413 5.407,5.407 0 0 1 6.326,11.82 5.407,5.407 0 0 1 0.92,6.413 5.407,5.407 0 0 1 6.327,1.006 Z"
       id="path2"
       inkscape:connector-curvature="0" />
    <g
       style="color:#000000;isolation:auto;mix-blend-mode:normal;solid-color:#000000"
       id="g8">
      <path
         d="m 6.442,2.402 c -2.145,0 -3.91,1.412 -4.103,3.473 H 1.3 l 1.537,1.93 1.536,-1.93 H 3.369 c 0.19,-1.502 1.495,-2.466 3.073,-2.466 1.707,0 3.094,1.364 3.094,3.045 0,1.68 -1.387,3.044 -3.094,3.044 A 3.11,3.11 0 0 1 4.116,8.46 L 3.364,9.146 a 4.136,4.136 0 0 0 3.078,1.359 c 2.273,0 4.118,-1.815 4.118,-4.052 0,-2.236 -1.845,-4.051 -4.118,-4.051 z"
         style="isolation:auto;mix-blend-mode:normal;solid-color:#000000"
         id="path4"
         inkscape:connector-curvature="0" />
      <path
         d="M 6.701,3.946 H 6.315 L 5.93,6.646 7.859,8.19 V 7.804 L 6.701,6.26 Z"
         style="isolation:auto;mix-blend-mode:normal;solid-color:#000000"
         id="path6"
         inkscape:connector-curvature="0" />
    </g>
  </g>
</svg>
